page/img/div-sc-16qqzq7-0.svg

<svg width="76" height="48" viewBox="0 0 76 48" fill="none" xmlns="http://www.w3.org/2000/svg">
<path fill-rule="evenodd" clip-rule="evenodd" d="M65.2929 20.2929C65.6834 19.9024 66.3166 19.9024 66.7071 20.2929C67.0976 20.6834 67.0976 21.3166 66.7071 21.7071L60.7071 27.7071C60.3166 28.0976 59.6834 28.0976 59.2929 27.7071L53.2929 21.7071C52.9024 21.3166 52.9024 20.6834 53.2929 20.2929C53.6834 19.9024 54.3166 19.9024 54.7071 20.2929L60 25.5858L65.2929 20.2929Z" fill="#6F8B90"/>
<rect x="1" y="1" width="46" height="46" rx="23" stroke="white" stroke-width="2"/>
<g clip-path="url(#clip0_2_4252)">
<g clip-path="url(#clip1_2_4252)">
<g clip-path="url(#clip2_2_4252)">
<mask id="mask0_2_4252" style="mask-type:luminance" maskUnits="userSpaceOnUse" x="2" y="2" width="44" height="44">
<path d="M46 2H2V46H46V2Z" fill="white"/>
</mask>
<g mask="url(#mask0_2_4252)">
<path d="M24 46C36.1502 46 46 36.1502 46 24C46 11.8498 36.1502 2 24 2C11.8498 2 2 11.8498 2 24C2 36.1502 11.8498 46 24 46Z" fill="#E6F7FE"/>
<path fill-rule="evenodd" clip-rule="evenodd" d="M23.9998 28.5833C26.1727 28.5833 28.8039 28.8109 30.9767 29.2661C34.5503 29.7651 37.0082 32.1477 38.0722 35.7497C34.7098 39.774 29.6537 42.3333 23.9998 42.3333C18.3344 42.3333 13.2692 39.7636 9.90625 35.726C10.9198 32.2484 13.2788 30.0091 17.023 29.2661C19.1958 28.8109 21.827 28.5833 23.9998 28.5833ZM23.9998 9.33334C28.0499 9.33334 31.3331 12.6166 31.3331 16.6667V18.5C31.3331 22.5501 28.0499 25.8333 23.9998 25.8333C19.9498 25.8333 16.6665 22.5501 16.6665 18.5V16.6667C16.6665 12.6166 19.9498 9.33334 23.9998 9.33334Z" fill="#00AFF5"/>
</g>
</g>
</g>
</g>
<defs>
<clipPath id="clip0_2_4252">
<rect x="2" y="2" width="44" height="44" rx="22" fill="white"/>
</clipPath>
<clipPath id="clip1_2_4252">
<rect width="44" height="44" fill="white" transform="translate(2 2)"/>
</clipPath>
<clipPath id="clip2_2_4252">
<rect width="44" height="44" fill="white" transform="translate(2 2)"/>
</clipPath>
</defs>
</svg>

<?xml version="1.0"?>
<svg width="76" height="48" xmlns="http://www.w3.org/2000/svg" xmlns:svg="http://www.w3.org/2000/svg">
 <defs>
  <clipPath id="clip0_2_4252">
   <rect fill="white" height="44" id="svg_1" rx="22" width="44" x="2" y="2"/>
  </clipPath>
  <clipPath id="clip1_2_4252">
   <rect fill="white" height="44" id="svg_2" transform="translate(2 2)" width="44"/>
  </clipPath>
  <clipPath id="clip2_2_4252">
   <rect fill="white" height="44" id="svg_3" transform="translate(2 2)" width="44"/>
  </clipPath>
 </defs>
 <g class="layer">
  <title>Layer 1</title>
  <path clip-rule="evenodd" d="m65.29,20.29c0.39,-0.39 1.03,-0.39 1.42,0c0.39,0.39 0.39,1.03 0,1.42l-6,6c-0.39,0.39 -1.03,0.39 -1.42,0l-6,-6c-0.39,-0.39 -0.39,-1.03 0,-1.42c0.39,-0.39 1.03,-0.39 1.42,0l5.29,5.3l5.29,-5.3z" fill="#1bba0d" fill-rule="evenodd" id="svg_4" transform="matrix(1 0 0 1 0 0)"/>
  <rect height="46" id="svg_5" rx="23" stroke="white" stroke-width="2" width="46" x="1" y="1"/>
  <g clip-path="url(#clip0_2_4252)" id="svg_6">
   <g clip-path="url(#clip1_2_4252)" id="svg_7">
    <g clip-path="url(#clip2_2_4252)" id="svg_8">
     <mask height="44" id="mask0_2_4252" maskUnits="userSpaceOnUse" width="44" x="2" y="2">
      <path d="m46,2l-44,0l0,44l44,0l0,-44z" fill="white" id="svg_9"/>
     </mask>
     <g id="svg_10" mask="url(#mask0_2_4252)">
      <path d="m24,46c12.15,0 22,-9.85 22,-22c0,-12.15 -9.85,-22 -22,-22c-12.15,0 -22,9.85 -22,22c0,12.15 9.85,22 22,22z" fill="#E6F7FE" id="svg_11"/>
      <path clip-rule="evenodd" d="m24,28.58c2.17,0 4.8,0.23 6.98,0.69c3.57,0.5 6.03,2.88 7.09,6.48c-3.36,4.02 -8.42,6.58 -14.07,6.58c-5.67,0 -10.73,-2.57 -14.09,-6.6c1.01,-3.48 3.37,-5.72 7.11,-6.46c2.18,-0.46 4.81,-0.69 6.98,-0.69zm0,-19.25c4.05,0 7.33,3.29 7.33,7.34l0,1.83c0,4.05 -3.28,7.33 -7.33,7.33c-4.05,0 -7.33,-3.28 -7.33,-7.33l0,-1.83c0,-4.05 3.28,-7.34 7.33,-7.34z" fill="#11aa06" fill-rule="evenodd" id="svg_12" stroke="#11aa06"/>
     </g>
    </g>
   </g>
  </g>
 </g>
</svg>
